Simply-Black-Circles/scalable/apps/xchat-gnome.svg

<svg xmlns="http://www.w3.org/2000/svg" width="48" height="48" viewBox="0 0 12.7 12.7"><path fill="#1a1a1a" d="M6.344.073a6.29 6.29 0 0 0-6.29 6.29 6.29 6.29 0 0 0 6.29 6.288 6.29 6.29 0 0 0 6.29-6.289 6.29 6.29 0 0 0-6.29-6.29zm-.018.936a5.407 5.407 0 0 1 5.407 5.407 5.407 5.407 0 0 1-5.407 5.407A5.407 5.407 0 0 1 .92 6.416 5.407 5.407 0 0 1 6.326 1.01zm.19 1.228a6.405 6.405 0 0 0-.461.026c-.117.01-.23.014-.344.03-2.312.342-4.022 1.934-3.867 3.659.101 1.116.958 2.035 2.183 2.52l-.511 1.994 2.263-1.637.016-.001c.28.011.56.016.85-.011 2.485-.227 4.374-1.88 4.21-3.689-.152-1.696-2.054-2.93-4.339-2.891zM7.551 3.27l.854.615L7.32 5.393l1.508 1.086-.615.853-1.507-1.085-1.086 1.508-.853-.615L5.85 5.632 4.343 4.547l.615-.854 1.508 1.086L7.55 3.27z"/></svg>

<?xml version="1.0" encoding="UTF-8" standalone="no"?>
<svg
   xmlns:dc="http://purl.org/dc/elements/1.1/"
   xmlns:cc="http://creativecommons.org/ns#"
   xmlns:rdf="http://www.w3.org/1999/02/22-rdf-syntax-ns#"
   xmlns:svg="http://www.w3.org/2000/svg"
   xmlns="http://www.w3.org/2000/svg"
   xmlns:sodipodi="http://sodipodi.sourceforge.net/DTD/sodipodi-0.dtd"
   xmlns:inkscape="http://www.inkscape.org/namespaces/inkscape"
   width="48"
   height="48"
   viewBox="0 0 12.7 12.7"
   version="1.1"
   id="svg4"
   sodipodi:docname="xchat-gnome.svg"
   inkscape:version="0.92.4 (5da689c313, 2019-01-14)">
  <metadata
     id="metadata10">
    <rdf:RDF>
      <cc:Work
         rdf:about="">
        <dc:format>image/svg+xml</dc:format>
        <dc:type
           rdf:resource="http://purl.org/dc/dcmitype/StillImage" />
        <dc:title></dc:title>
      </cc:Work>
    </rdf:RDF>
  </metadata>
  <defs
     id="defs8" />
  <sodipodi:namedview
     pagecolor="#ffffff"
     bordercolor="#666666"
     borderopacity="1"
     objecttolerance="10"
     gridtolerance="10"
     guidetolerance="10"
     inkscape:pageopacity="0"
     inkscape:pageshadow="2"
     inkscape:window-width="1087"
     inkscape:window-height="480"
     id="namedview6"
     showgrid="false"
     inkscape:zoom="4.9166667"
     inkscape:cx="2.1355932"
     inkscape:cy="24"
     inkscape:window-x="0"
     inkscape:window-y="25"
     inkscape:window-maximized="0"
     inkscape:current-layer="svg4" />
  <path
     d="m 6.344,0.073 a 6.29,6.29 0 0 0 -6.29,6.29 6.29,6.29 0 0 0 6.29,6.288 6.29,6.29 0 0 0 6.29,-6.289 6.29,6.29 0 0 0 -6.29,-6.29 z M 6.326,1.009 A 5.407,5.407 0 0 1 11.733,6.416 5.407,5.407 0 0 1 6.326,11.823 5.407,5.407 0 0 1 0.92,6.416 5.407,5.407 0 0 1 6.326,1.01 Z m 0.19,1.228 A 6.405,6.405 0 0 0 6.055,2.263 C 5.938,2.273 5.825,2.277 5.711,2.293 3.399,2.635 1.689,4.227 1.844,5.952 1.945,7.068 2.802,7.987 4.027,8.472 L 3.516,10.466 5.779,8.829 5.795,8.828 C 6.075,8.839 6.355,8.844 6.645,8.817 9.13,8.59 11.019,6.937 10.855,5.128 10.703,3.432 8.801,2.198 6.516,2.237 Z M 7.551,3.27 8.405,3.885 7.32,5.393 8.828,6.479 8.213,7.332 6.706,6.247 5.62,7.755 4.767,7.14 5.85,5.632 4.343,4.547 4.958,3.693 6.466,4.779 7.55,3.27 Z"
     id="path2"
     inkscape:connector-curvature="0"
     style="fill:#1a1a1a" />
</svg>
